assets/svgs/swach-dock-icon.svg

<svg viewBox="0 0 511.64 395.5" xmlns="http://www.w3.org/2000/svg"><path d="m354.59 157.05-116.14-116.14a139.68 139.68 0 0 0 -197.54 0 139.68 139.68 0 0 0 0 197.54l116.14 116.14a139.68 139.68 0 0 0 197.54 0 139.68 139.68 0 0 0 0-197.54zm-73.53 124a34.9 34.9 0 1 1 0-49.36 34.9 34.9 0 0 1 0 49.37z" fill="#ff0040"/><path d="m470.73 40.91a139.68 139.68 0 0 0 -197.54 0l-116.14 116.14a139.68 139.68 0 0 0 0 197.54 139.68 139.68 0 0 0 197.54 0l116.14-116.14a139.68 139.68 0 0 0 0-197.54zm-189.67 240.15a34.9 34.9 0 1 1 0-49.36 34.9 34.9 0 0 1 0 49.36z" fill="#0be8e6"/><path d="m354.59 157-98.77-98.75-98.77 98.75a139.68 139.68 0 0 0 0 197.54 139.68 139.68 0 0 0 197.54 0 139.68 139.68 0 0 0 0-197.54zm-73.53 124a34.9 34.9 0 1 1 0-49.36 34.9 34.9 0 0 1 0 49.36z" fill="#0b0038"/></svg>

<svg id="Layer_1" data-name="Layer 1" xmlns="http://www.w3.org/2000/svg" viewBox="0 0 511.64 395.5"><defs><style>.cls-1sdiab{fill:#ff0040;}.cls-2sdiab{fill:#0be8e6;}.cls-3sdiab{fill:#0b0038;}</style></defs><path class="cls-1sdiab" d="M354.59,157.05,238.45,40.91a139.68,139.68,0,0,0-197.54,0h0a139.68,139.68,0,0,0,0,197.54L157.05,354.59a139.68,139.68,0,0,0,197.54,0h0A139.68,139.68,0,0,0,354.59,157.05Zm-73.53,124a34.9,34.9,0,1,1,0-49.36A34.9,34.9,0,0,1,281.06,281.06Z"/><path class="cls-2sdiab" d="M470.73,40.91h0a139.68,139.68,0,0,0-197.54,0L157.05,157.05a139.68,139.68,0,0,0,0,197.54h0a139.68,139.68,0,0,0,197.54,0L470.73,238.45A139.68,139.68,0,0,0,470.73,40.91ZM281.06,281.06a34.9,34.9,0,1,1,0-49.36A34.9,34.9,0,0,1,281.06,281.06Z"/><path class="cls-3sdiab" d="M354.59,157,255.82,58.25,157.05,157a139.68,139.68,0,0,0,0,197.54h0a139.68,139.68,0,0,0,197.54,0h0A139.68,139.68,0,0,0,354.59,157ZM281.06,281a34.9,34.9,0,1,1,0-49.36A34.9,34.9,0,0,1,281.06,281Z"/></svg>
